app/images/Group41.svg

<svg width="80" height="76" viewBox="0 0 80 76" fill="none" xmlns="http://www.w3.org/2000/svg">
<path d="M76.3611 19.555C72.9605 16.1368 67.2796 14.4276 59.0382 14.4276H58.078V14.2822C58.078 8.17301 58.078 0.609253 43.0355 0.609253H36.9545C21.9121 0.609253 21.9121 8.20937 21.9121 14.2822V14.464H20.9519C12.6705 14.464 7.02959 16.1731 3.62903 19.5914C-0.331624 23.5914 -0.211604 28.9733 0.188462 32.6461L0.228468 32.9007L0.538342 35.8581C0.595408 36.4027 0.918116 36.8947 1.42177 37.1943C2.38114 37.7649 3.98679 38.7056 4.94925 39.1917C5.50934 39.5189 6.10944 39.8099 6.70954 40.1008C13.5507 43.519 21.0719 45.8099 28.7132 46.9372C29.0732 50.3555 30.7135 54.3555 39.475 54.3555C48.2364 54.3555 49.9567 50.3918 50.2367 46.8645C58.3981 45.6645 66.2794 43.0826 73.4006 39.3008C73.6406 39.1917 73.8006 39.0826 74.0007 38.9735C75.5878 38.1581 77.2344 37.1534 78.7353 36.1692C79.1874 35.8728 79.4766 35.4143 79.5381 34.9107L79.6016 34.3916L79.8016 32.6825C79.8416 32.4643 79.8416 32.2825 79.8816 32.0279C80.2017 28.3551 80.1217 23.3369 76.3611 19.555ZM44.3558 44.4645C44.3558 48.3191 44.3558 48.9009 39.4349 48.9009C34.5141 48.9009 34.5141 48.21 34.5141 44.5008V39.9189H44.3558V44.4645ZM27.633 14.4276V14.2822C27.633 8.10028 27.633 5.80933 36.9545 5.80933H43.0355C52.3571 5.80933 52.3571 8.13664 52.3571 14.2822V14.464H27.633V14.4276Z" fill="#292D32"/>
<path d="M75.8843 44.1222C77.299 43.5103 78.9283 44.5295 78.7866 45.9477L77.3507 60.3255C76.5106 67.5983 73.23 75.0166 55.6271 75.0166H25.1421C7.53914 75.0166 4.25861 67.5983 3.41847 60.3618L2.05539 46.7331C1.9152 45.3314 3.50729 44.3134 4.91807 44.8935C9.47649 46.7681 17.8904 50.094 23.088 51.3314C23.7453 51.4879 24.277 51.9155 24.5648 52.475C26.9931 57.1955 32.2597 59.7073 39.8645 59.7073C47.3942 59.7073 52.7272 57.0988 55.1635 52.3667C55.4518 51.8068 55.984 51.3793 56.6418 51.222C62.1609 49.9019 71.1168 46.1843 75.8843 44.1222Z" fill="#292D32"/>
</svg>

<svg xmlns="http://www.w3.org/2000/svg" width="80" height="76" fill="none"><path fill="#292D32" d="M76.361 19.555c-3.4-3.418-9.081-5.127-17.323-5.127h-.96v-.146c0-6.109 0-13.673-15.043-13.673h-6.08c-15.043 0-15.043 7.6-15.043 13.673v.182h-.96c-8.282 0-13.922 1.71-17.323 5.127-3.96 4-3.84 9.382-3.44 13.055l.04.255.31 2.957c.056.545.38 1.037.883 1.336.96.57 2.565 1.512 3.527 1.998.56.327 1.16.618 1.76.909 6.842 3.418 14.363 5.709 22.004 6.836.36 3.419 2 7.419 10.762 7.419 8.761 0 10.482-3.964 10.762-7.492 8.161-1.2 16.042-3.781 23.164-7.563.24-.11.4-.218.6-.328 1.587-.815 3.233-1.82 4.734-2.804.452-.296.742-.755.803-1.258l.064-.52.2-1.709c.04-.218.04-.4.08-.654.32-3.673.24-8.691-3.52-12.473Zm-32.005 24.91c0 3.854 0 4.436-4.921 4.436-4.92 0-4.92-.691-4.92-4.4v-4.582h9.84v4.546ZM27.633 14.428v-.146c0-6.182 0-8.473 9.322-8.473h6.08c9.322 0 9.322 2.328 9.322 8.473v.182H27.633v-.036Z"/><path fill="#292D32" d="M75.884 44.122c1.415-.612 3.044.407 2.903 1.826L77.35 60.325c-.84 7.273-4.121 14.692-21.724 14.692H25.142c-17.603 0-20.883-7.419-21.724-14.655L2.055 46.733c-.14-1.402 1.452-2.42 2.863-1.84 4.558 1.875 12.972 5.201 18.17 6.438a2.236 2.236 0 0 1 1.477 1.144c2.428 4.72 7.695 7.232 15.3 7.232 7.53 0 12.862-2.608 15.298-7.34.289-.56.821-.988 1.479-1.145 5.519-1.32 14.475-5.038 19.242-7.1Z"/></svg>
